X: 1
T: Polska efter Snickar-Erik   [Dm]
C:
R: polska
S: Fiddle Hell Online 2021-5-25 Natalie Haas Swedish polska workshop
Z: 2021 John Chambers <jc:trillian.mit.edu>
M: 9/8
L: 1/8
K: Dm
"^A"|: z2g fzd ez^c | dze egf efg | azf de2 ^c2d |1,3 efe d^c2 A3 :|2,4 "Dm"d3 d6 :|
"^B"|:{G}"Dm"FzG EzF DzF | "G"Azc dc=B AzG | "Dm"FzG EzF DzF |1,3 "G"Gz=B "A"AF2 "Dm"DzG :|2,4 "G"G=B2 "A"A3- A2G :|2 "G"G=B2 "A"A6 |]
